packages/kaspersky-hexa-ui-icons/src/iconsSVGs/16/Number.svg

<svg width="16" height="16" viewBox="0 0 16 16" fill="none" xmlns="http://www.w3.org/2000/svg">
<path fill-rule="evenodd" clip-rule="evenodd" d="M1.3501 6.0001C1.3501 5.64111 1.64111 5.3501 2.0001 5.3501H3.33343C3.69242 5.3501 3.98343 5.64111 3.98343 6.0001V10.0001C3.98343 10.3591 3.69242 10.6501 3.33343 10.6501C2.97445 10.6501 2.68343 10.3591 2.68343 10.0001V6.6501H2.0001C1.64111 6.6501 1.3501 6.35908 1.3501 6.0001ZM5.3501 6.0001C5.3501 5.64111 5.64111 5.3501 6.0001 5.3501H8.66676C9.02575 5.3501 9.31676 5.64111 9.31676 6.0001V8.0001C9.31676 8.35908 9.02575 8.6501 8.66676 8.6501H6.6501V9.3501H8.66676C9.02575 9.3501 9.31676 9.64111 9.31676 10.0001C9.31676 10.3591 9.02575 10.6501 8.66676 10.6501H6.0001C5.64111 10.6501 5.3501 10.3591 5.3501 10.0001V8.0001C5.3501 7.64111 5.64111 7.3501 6.0001 7.3501H8.01676V6.6501H6.0001C5.64111 6.6501 5.3501 6.35908 5.3501 6.0001ZM10.6834 6.0001C10.6834 5.64111 10.9744 5.3501 11.3334 5.3501H14.0001C14.3591 5.3501 14.6501 5.64111 14.6501 6.0001V10.0001C14.6501 10.3591 14.3591 10.6501 14.0001 10.6501H11.3334C10.9744 10.6501 10.6834 10.3591 10.6834 10.0001C10.6834 9.64111 10.9744 9.3501 11.3334 9.3501H13.3501V8.6501H12.3334C11.9744 8.6501 11.6834 8.35908 11.6834 8.0001C11.6834 7.64111 11.9744 7.3501 12.3334 7.3501H13.3501V6.6501H11.3334C10.9744 6.6501 10.6834 6.35908 10.6834 6.0001Z" fill="black"/>
</svg>

<svg xmlns="http://www.w3.org/2000/svg" width="16" height="16" fill="none" viewBox="0 0 16 16"><path fill="#000" fill-rule="evenodd" d="M1.35 6A.65.65 0 0 1 2 5.35h1.3333a.65.65 0 0 1 .65.65v4a.65.65 0 1 1-1.3 0V6.65H2A.65.65 0 0 1 1.35 6m4 0A.65.65 0 0 1 6 5.35h2.6667a.65.65 0 0 1 .65.65v2a.65.65 0 0 1-.65.65H6.65v.7h2.0167a.65.65 0 1 1 0 1.3H6a.65.65 0 0 1-.65-.65V8A.65.65 0 0 1 6 7.35h2.0167v-.7H6A.65.65 0 0 1 5.35 6m5.3333 0a.65.65 0 0 1 .65-.65H14a.65.65 0 0 1 .65.65v4a.65.65 0 0 1-.65.65h-2.6667a.65.65 0 0 1 0-1.3H13.35v-.7h-1.0167a.65.65 0 0 1 0-1.3H13.35v-.7h-2.0167a.65.65 0 0 1-.65-.65"/></svg>
